public/assets/signin/twitter.svg

<svg width="24" height="25" viewBox="0 0 24 25" fill="none" xmlns="http://www.w3.org/2000/svg">
<path d="M22.4591 6.5C21.6891 6.85 20.8591 7.08 19.9991 7.19C20.8791 6.66 21.5591 5.82 21.8791 4.81C21.0491 5.31 20.1291 5.66 19.1591 5.86C18.3691 5 17.2591 4.5 15.9991 4.5C13.6491 4.5 11.7291 6.42 11.7291 8.79C11.7291 9.13 11.7691 9.46 11.8391 9.77C8.27906 9.59 5.10906 7.88 2.99906 5.29C2.62906 5.92 2.41906 6.66 2.41906 7.44C2.41906 8.93 3.16906 10.25 4.32906 11C3.61906 11 2.95906 10.8 2.37906 10.5V10.53C2.37906 12.61 3.85906 14.35 5.81906 14.74C5.18979 14.9122 4.52916 14.9362 3.88906 14.81C4.16067 15.6625 4.6926 16.4084 5.41008 16.9429C6.12756 17.4775 6.99451 17.7737 7.88906 17.79C6.37269 18.9904 4.49306 19.6393 2.55906 19.63C2.21906 19.63 1.87906 19.61 1.53906 19.57C3.43906 20.79 5.69906 21.5 8.11906 21.5C15.9991 21.5 20.3291 14.96 20.3291 9.29C20.3291 9.1 20.3291 8.92 20.3191 8.73C21.1591 8.13 21.8791 7.37 22.4591 6.5Z" fill="#202020"/>
</svg>

<svg width="24" height="25" fill="none" xmlns="http://www.w3.org/2000/svg"><path d="M22.46 6.5c-.77.35-1.6.58-2.46.69.88-.53 1.56-1.37 1.88-2.38-.83.5-1.75.85-2.72 1.05C18.37 5 17.26 4.5 16 4.5c-2.35 0-4.27 1.92-4.27 4.29 0 .34.04.67.11.98C8.28 9.59 5.11 7.88 3 5.29c-.37.63-.58 1.37-.58 2.15 0 1.49.75 2.81 1.91 3.56-.71 0-1.37-.2-1.95-.5v.03c0 2.08 1.48 3.82 3.44 4.21a4.22 4.22 0 0 1-1.93.07 4.28 4.28 0 0 0 4 2.98 8.521 8.521 0 0 1-5.33 1.84c-.34 0-.68-.02-1.02-.06 1.9 1.22 4.16 1.93 6.58 1.93 7.88 0 12.21-6.54 12.21-12.21 0-.19 0-.37-.01-.56.84-.6 1.56-1.36 2.14-2.23Z" fill="#202020"/></svg>
